; generated by Slic3r 1.37.2.1-prusa3d on 2019-05-13 at 22:19:40

; 

; external perimeters extrusion width = 0.42mm
; perimeters extrusion width = 0.45mm
; infill extrusion width = 0.45mm
; solid infill extrusion width = 0.45mm
; top infill extrusion width = 0.42mm
; first layer extrusion width = 0.42mm

M107 ; disable fan
M115 U3.1.0 ; tell printer latest fw version
M83  ; extruder relative mode
M104 S215 ; set extruder temp
M140 S55 ; set bed temp
M190 S55 ; wait for bed temp
M109 S215 ; wait for extruder temp
G28 W ; home all without mesh bed level
G80 ; mesh bed leveling
G1 Y-3.0 F1000.0 ; go outside pritn area
G1 X60.0 E9.0  F1000.0 ; intro line
G1 X100.0 E12.5  F1000.0 ; intro line
G92 E0.0
M900 K30
G21 ; set units to millimeters
G90 ; use absolute coordinates
M83 ; use relative distances for extrusion
;BEFORE_LAYER_CHANGE
;0.2


G1 E-0.80000 F2100.00000 ; retract
G1 Z0.600 F7200.000 ; lift Z
;AFTER_LAYER_CHANGE
;0.2
G1 X112.487 Y94.041 F7200.000 ; move to first skirt point
G1 Z0.200 F7200.000 ; restore layer Z
G1 E0.80000 F2100.00000 ; unretract
M204 S1000 ; adjust acceleration
G1 F1800
G1 X112.980 Y93.233 E0.02968 ; skirt
G1 X113.385 Y92.856 E0.01733 ; skirt
G1 X113.860 Y92.566 E0.01745 ; skirt
G1 X114.380 Y92.379 E0.01733 ; skirt
G1 X114.930 Y92.298 E0.01745 ; skirt
G1 X134.954 Y92.296 E0.62783 ; skirt
G1 X135.955 Y92.486 E0.03195 ; skirt
G1 X136.816 Y93.024 E0.03183 ; skirt
G1 X137.423 Y93.838 E0.03183 ; skirt
G1 X137.695 Y94.820 E0.03195 ; skirt
G1 X137.703 Y115.036 E0.63386 ; skirt
G1 X137.513 Y115.959 E0.02955 ; skirt
G1 X137.020 Y116.767 E0.02968 ; skirt
G1 X136.596 Y117.158 E0.01809 ; skirt
G1 X136.099 Y117.453 E0.01809 ; skirt
G1 X135.553 Y117.637 E0.01809 ; skirt
G1 X134.979 Y117.704 E0.01809 ; skirt
G1 X114.964 Y117.703 E0.62757 ; skirt
G1 X114.041 Y117.513 E0.02955 ; skirt
G1 X113.233 Y117.020 E0.02968 ; skirt
G1 X112.842 Y116.596 E0.01809 ; skirt
G1 X112.547 Y116.099 E0.01809 ; skirt
G1 X112.363 Y115.553 E0.01809 ; skirt
G1 X112.296 Y114.979 E0.01809 ; skirt
G1 X112.297 Y94.964 E0.62757 ; skirt
G1 X112.475 Y94.100 E0.02767 ; skirt
G1 F5760
G1 X112.980 Y93.233 E-0.34745 ; wipe and retract
G1 F5760
G1 X113.385 Y92.856 E-0.19138 ; wipe and retract
G1 F5760
G1 X113.860 Y92.566 E-0.19280 ; wipe and retract
G1 F5760
G1 X113.937 Y92.538 E-0.02837 ; wipe and retract
G1 E-0.04000 F2100.00000 ; retract
G1 Z0.800 F7200.000 ; lift Z
G1 X114.039 Y92.899 F7200.000 ; move to first skirt point
G1 Z0.200 F7200.000 ; restore layer Z
G1 E0.80000 F2100.00000 ; unretract
G1 F1800
G1 X114.961 Y92.675 E0.02977 ; skirt
G1 X134.954 Y92.673 E0.62685 ; skirt
G1 X135.821 Y92.838 E0.02767 ; skirt
G1 X136.567 Y93.308 E0.02767 ; skirt
G1 X137.091 Y94.018 E0.02767 ; skirt
G1 X137.321 Y94.874 E0.02778 ; skirt
G1 X137.326 Y115.015 E0.63150 ; skirt
G1 X137.159 Y115.828 E0.02602 ; skirt
G1 X136.723 Y116.534 E0.02602 ; skirt
G1 X136.357 Y116.866 E0.01550 ; skirt
G1 X135.930 Y117.116 E0.01550 ; skirt
G1 X135.461 Y117.271 E0.01550 ; skirt
G1 X134.970 Y117.327 E0.01550 ; skirt
G1 X114.985 Y117.326 E0.62661 ; skirt
G1 X114.172 Y117.159 E0.02602 ; skirt
G1 X113.466 Y116.723 E0.02602 ; skirt
G1 X113.134 Y116.357 E0.01550 ; skirt
G1 X112.884 Y115.930 E0.01550 ; skirt
G1 X112.729 Y115.461 E0.01550 ; skirt
G1 X112.673 Y114.970 E0.01550 ; skirt
G1 X112.674 Y94.985 E0.62661 ; skirt
G1 X112.841 Y94.172 E0.02602 ; skirt
G1 X113.277 Y93.466 E0.02602 ; skirt
G1 X113.990 Y92.935 E0.02789 ; skirt
G1 F5760
G1 X114.961 Y92.675 E-0.34813 ; wipe and retract
G1 F5760
G1 X116.151 Y92.674 E-0.41187 ; wipe and retract
G1 E-0.04000 F2100.00000 ; retract
G1 Z0.800 F7200.000 ; lift Z
G1 X115.260 Y95.260 F7200.000 ; move to first perimeter point
G1 Z0.200 F7200.000 ; restore layer Z
G1 E0.80000 F2100.00000 ; unretract
G1 F1800
G1 X115.552 Y95.260 E0.00916 ; perimeter
G1 X115.552 Y96.167 E0.02843 ; perimeter
G1 X115.456 Y96.206 E0.00325 ; perimeter
G1 X115.314 Y96.550 E0.01166 ; perimeter
G1 X115.456 Y96.894 E0.01166 ; perimeter
G1 X115.552 Y96.933 E0.00325 ; perimeter
G1 X115.552 Y114.740 E0.55832 ; perimeter
G1 X115.260 Y114.740 E0.00916 ; perimeter
G1 X115.260 Y95.320 E0.60890 ; perimeter
G1 X115.514 Y95.405 F7200.000 ; move inwards before travel
G1 F5760
G1 X115.552 Y95.260 E-0.10329 ; wipe and retract
G1 F5760
G1 X115.552 Y96.167 E-0.31407 ; wipe and retract
G1 F5760
G1 X115.456 Y96.206 E-0.03588 ; wipe and retract
G1 F5760
G1 X115.314 Y96.550 E-0.12880 ; wipe and retract
G1 F5760
G1 X115.456 Y96.894 E-0.12880 ; wipe and retract
G1 F5760
G1 X115.552 Y96.933 E-0.03588 ; wipe and retract
G1 F5760
G1 X115.552 Y96.972 E-0.01328 ; wipe and retract
G1 E-0.04000 F2100.00000 ; retract
G1 Z0.800 F7200.000 ; lift Z
G1 X117.840 Y97.840 F7200.000 ; move to first perimeter point
G1 Z0.200 F7200.000 ; restore layer Z
G1 E0.80000 F2100.00000 ; unretract
G1 F1800
G1 X121.190 Y97.840 E0.10505 ; perimeter
G1 X121.284 Y98.789 E0.02991 ; perimeter
G1 X121.499 Y99.500 E0.02329 ; perimeter
G1 X121.850 Y100.155 E0.02329 ; perimeter
G1 X122.321 Y100.729 E0.02329 ; perimeter
G1 X122.895 Y101.200 E0.02329 ; perimeter
G1 X123.550 Y101.551 E0.02329 ; perimeter
G1 X124.261 Y101.766 E0.02329 ; perimeter
G1 X125.000 Y101.839 E0.02329 ; perimeter
G1 X125.739 Y101.766 E0.02329 ; perimeter
G1 X126.450 Y101.551 E0.02329 ; perimeter
G1 X127.105 Y101.200 E0.02329 ; perimeter
G1 X127.679 Y100.729 E0.02329 ; perimeter
G1 X128.150 Y100.155 E0.02329 ; perimeter
G1 X128.501 Y99.500 E0.02329 ; perimeter
G1 X128.716 Y98.789 E0.02329 ; perimeter
G1 X128.810 Y97.840 E0.02991 ; perimeter
G1 X132.160 Y97.840 E0.10505 ; perimeter
G1 X132.160 Y112.160 E0.44899 ; perimeter
G1 X117.840 Y112.160 E0.44899 ; perimeter
G1 X117.840 Y97.900 E0.44711 ; perimeter
G1 X117.736 Y97.454 F7200.000 ; move inwards before travel
G1 F5760
G1 X120.034 Y97.861 E-0.76000 ; wipe and retract
G1 E-0.04000 F2100.00000 ; retract
G1 Z0.800 F7200.000 ; lift Z
G1 X122.785 Y95.704 F7200.000 ; move to first perimeter point
G1 Z0.200 F7200.000 ; restore layer Z
G1 E0.80000 F2100.00000 ; unretract
G1 F1800
G1 X122.757 Y95.637 E0.00228 ; perimeter
G1 X123.463 Y95.637 E0.02212 ; perimeter
G1 X123.300 Y95.704 E0.00551 ; perimeter
G1 X122.845 Y95.704 E0.01427 ; perimeter
G1 F5760
G1 X122.757 Y95.637 E-0.03832 ; wipe and retract
G1 F5760
G1 X123.463 Y95.637 E-0.24434 ; wipe and retract
G1 F5760
G1 X123.300 Y95.704 E-0.06088 ; wipe and retract
G1 F5760
G1 X122.845 Y95.704 E-0.15767 ; wipe and retract
G1 E-0.29879 F2100.00000 ; retract
G1 Z0.800 F7200.000 ; lift Z
G1 X126.537 Y95.637 F7200.000 ; move to first perimeter point
G1 Z0.200 F7200.000 ; restore layer Z
G1 E0.80000 F2100.00000 ; unretract
G1 F1800
G1 X134.363 Y95.637 E0.24537 ; perimeter
G1 X134.363 Y114.363 E0.58714 ; perimeter
G1 X117.925 Y114.363 E0.51540 ; perimeter
G1 X117.925 Y112.537 E0.05725 ; perimeter
G1 X132.537 Y112.537 E0.45815 ; perimeter
G1 X132.537 Y97.463 E0.47264 ; perimeter
G1 X128.468 Y97.463 E0.12759 ; perimeter
G1 X128.453 Y97.610 E0.00465 ; perimeter
G1 X127.864 Y96.186 E0.04833 ; perimeter
G1 X126.593 Y95.660 E0.04313 ; perimeter
G1 F5760
G1 X128.787 Y95.654 E-0.76000 ; wipe and retract
G1 E-0.04000 F2100.00000 ; retract
G1 Z0.800 F7200.000 ; lift Z
G1 X127.575 Y96.475 F7200.000 ; move to first perimeter point
G1 Z0.200 F7200.000 ; restore layer Z
G1 E0.80000 F2100.00000 ; unretract
G1 F1800
G1 X126.042 Y95.840 E0.05203 ; perimeter
G1 X123.958 Y95.840 E0.06533 ; perimeter
G1 X123.375 Y96.081 E0.01978 ; perimeter
G1 X122.533 Y96.081 E0.02641 ; perimeter
G1 X122.368 Y95.682 E0.01355 ; perimeter
G1 X121.542 Y95.340 E0.02803 ; perimeter
G1 X118.458 Y95.340 E0.09668 ; perimeter
G1 X117.632 Y95.682 E0.02803 ; perimeter
G1 X117.548 Y95.886 E0.00691 ; perimeter
G1 X117.548 Y95.260 E0.01962 ; perimeter
G1 X134.740 Y95.260 E0.53905 ; perimeter
G1 X134.740 Y114.740 E0.61078 ; perimeter
G1 X117.548 Y114.740 E0.53905 ; perimeter
G1 X117.548 Y97.214 E0.54951 ; perimeter
G1 X117.632 Y97.418 E0.00691 ; perimeter
G1 X118.458 Y97.760 E0.02803 ; perimeter
G1 X121.542 Y97.760 E0.09668 ; perimeter
G1 X121.966 Y97.584 E0.01438 ; perimeter
G1 X121.786 Y98.018 E0.01472 ; perimeter
G1 X121.851 Y98.676 E0.02074 ; perimeter
G1 X122.033 Y99.279 E0.01974 ; perimeter
G1 X122.330 Y99.834 E0.01974 ; perimeter
G1 X122.730 Y100.321 E0.01976 ; perimeter
G1 X123.235 Y100.730 E0.02038 ; perimeter
G1 X123.771 Y101.017 E0.01906 ; perimeter
G1 X124.374 Y101.199 E0.01974 ; perimeter
G1 X125.000 Y101.261 E0.01974 ; perimeter
G1 X125.626 Y101.199 E0.01974 ; perimeter
G1 X126.229 Y101.017 E0.01974 ; perimeter
G1 X126.785 Y100.720 E0.01976 ; perimeter
G1 X127.284 Y100.304 E0.02038 ; perimeter
G1 X127.670 Y99.834 E0.01906 ; perimeter
G1 X127.967 Y99.279 E0.01974 ; perimeter
G1 X128.149 Y98.676 E0.01974 ; perimeter
G1 X128.214 Y98.018 E0.02074 ; perimeter
G1 X127.598 Y96.530 E0.05049 ; perimeter
G1 X127.645 Y96.081 F7200.000 ; move inwards before travel
G1 F5760
G1 X126.042 Y95.840 E-0.58965 ; wipe and retract
G1 F5760
G1 X125.550 Y95.840 E-0.17035 ; wipe and retract
G1 E-0.04000 F2100.00000 ; retract
G1 Z0.800 F7200.000 ; lift Z
G1 X128.481 Y97.797 F7200.000 ; move to first infill point
G1 Z0.200 F7200.000 ; restore layer Z
G1 E0.80000 F2100.00000 ; unretract
G1 F1800
G1 X128.505 Y97.999 E0.00317 ; infill
G1 X128.433 Y98.733 E0.01144 ; infill
G1 X128.233 Y99.389 E0.01065 ; infill
G1 X127.910 Y99.994 E0.01065 ; infill
G1 X127.483 Y100.514 E0.01045 ; infill
G1 X126.944 Y100.960 E0.01085 ; infill
G1 X126.339 Y101.283 E0.01065 ; infill
G1 X125.683 Y101.483 E0.01065 ; infill
G1 X125.000 Y101.550 E0.01065 ; infill
G1 X124.317 Y101.483 E0.01065 ; infill
G1 X123.661 Y101.283 E0.01065 ; infill
G1 X123.057 Y100.958 E0.01065 ; infill
G1 X122.525 Y100.525 E0.01065 ; infill
G1 X122.090 Y99.994 E0.01065 ; infill
G1 X121.767 Y99.389 E0.01065 ; infill
G1 X121.567 Y98.733 E0.01065 ; infill
G1 X121.490 Y97.949 E0.01224 ; infill
G1 F5760
G1 X121.567 Y98.733 E-0.27294 ; wipe and retract
G1 F5760
G1 X121.767 Y99.389 E-0.23762 ; wipe and retract
G1 F5760
G1 X122.090 Y99.994 E-0.23762 ; wipe and retract
G1 F5760
G1 X122.112 Y100.021 E-0.01181 ; wipe and retract
G1 E-0.04000 F2100.00000 ; retract
G1 Z0.800 F7200.000 ; lift Z
G1 X123.643 Y95.578 F7200.000 ; move to first infill point
G1 Z0.200 F7200.000 ; restore layer Z
G1 E0.80000 F2100.00000 ; unretract
G1 F1800
G1 X123.921 Y95.550 E0.00371 ; infill
G1 X126.079 Y95.550 E0.02872 ; infill
G1 F1800
G1 X126.352 Y95.600 E0.00487 ; infill
G1 F5760
G1 X126.079 Y95.550 E-0.09616 ; wipe and retract
G1 E-0.70384 F2100.00000 ; retract
G1 Z0.800 F7200.000 ; lift Z
G1 X129.197 Y97.350 F7200.000 ; move to first infill point
G1 Z0.200 F7200.000 ; restore layer Z
G1 E0.80000 F2100.00000 ; unretract
G1 F1800
G1 X128.266 Y96.418 E0.04146 ; infill
G1 X128.080 Y95.970 E0.01526 ; infill
G1 X127.959 Y95.920 E0.00412 ; infill
G1 X128.303 Y95.920 E0.01081 ; infill
G1 X129.563 Y97.180 E0.05608 ; infill
G1 X130.098 Y97.180 E0.01684 ; infill
G1 X128.838 Y95.920 E0.05608 ; infill
G1 X129.373 Y95.920 E0.01684 ; infill
G1 X130.633 Y97.180 E0.05608 ; infill
G1 X131.168 Y97.180 E0.01684 ; infill
G1 X129.908 Y95.920 E0.05608 ; infill
G1 X130.443 Y95.920 E0.01684 ; infill
G1 X131.704 Y97.180 E0.05608 ; infill
G1 X132.239 Y97.180 E0.01684 ; infill
G1 X130.978 Y95.920 E0.05608 ; infill
G1 X131.514 Y95.920 E0.01684 ; infill
G1 X134.080 Y98.486 E0.11421 ; infill
G1 X134.080 Y97.951 E0.01684 ; infill
G1 X132.049 Y95.920 E0.09039 ; infill
G1 X132.584 Y95.920 E0.01684 ; infill
G1 X134.080 Y97.416 E0.06658 ; infill
G1 X134.080 Y96.881 E0.01684 ; infill
G1 X133.119 Y95.920 E0.04276 ; infill
G1 X133.654 Y95.920 E0.01684 ; infill
G1 X134.250 Y96.515 E0.02650 ; infill
G1 F5760
G1 X133.654 Y95.920 E-0.29166 ; wipe and retract
G1 F5760
G1 X133.119 Y95.920 E-0.18536 ; wipe and retract
G1 F5760
G1 X133.697 Y96.498 E-0.28297 ; wipe and retract
G1 E-0.04000 F2100.00000 ; retract
G1 Z0.800 F7200.000 ; lift Z
G1 X134.250 Y99.191 F7200.000 ; move to first infill point
G1 Z0.200 F7200.000 ; restore layer Z
G1 E0.80000 F2100.00000 ; unretract
G1 F1800
G1 X132.820 Y97.761 E0.06363 ; infill
G1 X132.820 Y98.296 E0.01684 ; infill
G1 X134.080 Y99.557 E0.05608 ; infill
G1 X134.080 Y100.092 E0.01684 ; infill
G1 X132.820 Y98.832 E0.05608 ; infill
G1 X132.820 Y99.367 E0.01684 ; infill
G1 X134.080 Y100.627 E0.05608 ; infill
G1 X134.080 Y101.162 E0.01684 ; infill
G1 X132.820 Y99.902 E0.05608 ; infill
G1 X132.820 Y100.437 E0.01684 ; infill
G1 X134.080 Y101.697 E0.05608 ; infill
G1 X134.080 Y102.233 E0.01684 ; infill
G1 X132.820 Y100.972 E0.05608 ; infill
G1 X132.820 Y101.508 E0.01684 ; infill
G1 X134.080 Y102.768 E0.05608 ; infill
G1 X134.080 Y103.303 E0.01684 ; infill
G1 X132.820 Y102.043 E0.05608 ; infill
G1 X132.820 Y102.578 E0.01684 ; infill
G1 X134.080 Y103.838 E0.05608 ; infill
G1 X134.080 Y104.373 E0.01684 ; infill
G1 X132.820 Y103.113 E0.05608 ; infill
G1 X132.820 Y103.648 E0.01684 ; infill
G1 X134.080 Y104.909 E0.05608 ; infill
G1 X134.080 Y105.444 E0.01684 ; infill
G1 X132.820 Y104.183 E0.05608 ; infill
G1 X132.820 Y104.719 E0.01684 ; infill
G1 X134.080 Y105.979 E0.05608 ; infill
G1 X134.080 Y106.514 E0.01684 ; infill
G1 X132.820 Y105.254 E0.05608 ; infill
G1 X132.820 Y105.789 E0.01684 ; infill
G1 X134.080 Y107.049 E0.05608 ; infill
G1 X134.080 Y107.584 E0.01684 ; infill
G1 X132.820 Y106.324 E0.05608 ; infill
G1 X132.820 Y106.859 E0.01684 ; infill
G1 X134.080 Y108.120 E0.05608 ; infill
G1 X134.080 Y108.655 E0.01684 ; infill
G1 X132.820 Y107.395 E0.05608 ; infill
G1 X132.820 Y107.930 E0.01684 ; infill
G1 X134.080 Y109.190 E0.05608 ; infill
G1 X134.080 Y109.725 E0.01684 ; infill
G1 X132.820 Y108.465 E0.05608 ; infill
G1 X132.820 Y109.000 E0.01684 ; infill
G1 X134.080 Y110.260 E0.05608 ; infill
G1 X134.080 Y110.796 E0.01684 ; infill
G1 X132.820 Y109.535 E0.05608 ; infill
G1 X132.820 Y110.070 E0.01684 ; infill
G1 X134.080 Y111.331 E0.05608 ; infill
G1 X134.080 Y111.866 E0.01684 ; infill
G1 X132.820 Y110.606 E0.05608 ; infill
G1 X132.820 Y111.141 E0.01684 ; infill
G1 X134.080 Y112.401 E0.05608 ; infill
G1 X134.080 Y112.936 E0.01684 ; infill
G1 X132.820 Y111.676 E0.05608 ; infill
G1 X132.820 Y112.211 E0.01684 ; infill
G1 X134.080 Y113.471 E0.05608 ; infill
G1 X134.080 Y114.007 E0.01684 ; infill
G1 X132.820 Y112.746 E0.05608 ; infill
G1 X132.820 Y112.820 E0.00231 ; infill
G1 X132.358 Y112.820 E0.01453 ; infill
G1 X133.618 Y114.080 E0.05608 ; infill
G1 X133.083 Y114.080 E0.01684 ; infill
G1 X131.823 Y112.820 E0.05608 ; infill
G1 X131.288 Y112.820 E0.01684 ; infill
G1 X132.548 Y114.080 E0.05608 ; infill
G1 X132.013 Y114.080 E0.01684 ; infill
G1 X130.753 Y112.820 E0.05608 ; infill
G1 X130.217 Y112.820 E0.01684 ; infill
G1 X131.478 Y114.080 E0.05608 ; infill
G1 X130.943 Y114.080 E0.01684 ; infill
G1 X129.682 Y112.820 E0.05608 ; infill
G1 X129.147 Y112.820 E0.01684 ; infill
G1 X130.407 Y114.080 E0.05608 ; infill
G1 X129.872 Y114.080 E0.01684 ; infill
G1 X128.612 Y112.820 E0.05608 ; infill
G1 X128.077 Y112.820 E0.01684 ; infill
G1 X129.337 Y114.080 E0.05608 ; infill
G1 X128.802 Y114.080 E0.01684 ; infill
G1 X127.542 Y112.820 E0.05608 ; infill
G1 X127.006 Y112.820 E0.01684 ; infill
G1 X128.267 Y114.080 E0.05608 ; infill
G1 X127.731 Y114.080 E0.01684 ; infill
G1 X126.471 Y112.820 E0.05608 ; infill
G1 X125.936 Y112.820 E0.01684 ; infill
G1 X127.196 Y114.080 E0.05608 ; infill
G1 X126.661 Y114.080 E0.01684 ; infill
G1 X125.401 Y112.820 E0.05608 ; infill
G1 X124.866 Y112.820 E0.01684 ; infill
G1 X126.126 Y114.080 E0.05608 ; infill
G1 X125.591 Y114.080 E0.01684 ; infill
G1 X124.331 Y112.820 E0.05608 ; infill
G1 X123.795 Y112.820 E0.01684 ; infill
G1 X125.056 Y114.080 E0.05608 ; infill
G1 X124.520 Y114.080 E0.01684 ; infill
G1 X123.260 Y112.820 E0.05608 ; infill
G1 X122.725 Y112.820 E0.01684 ; infill
G1 X123.985 Y114.080 E0.05608 ; infill
G1 X123.450 Y114.080 E0.01684 ; infill
G1 X122.190 Y112.820 E0.05608 ; infill
G1 X121.655 Y112.820 E0.01684 ; infill
G1 X122.915 Y114.080 E0.05608 ; infill
G1 X122.380 Y114.080 E0.01684 ; infill
G1 X121.119 Y112.820 E0.05608 ; infill
G1 X120.584 Y112.820 E0.01684 ; infill
